svg/u1f333.svg

<svg viewBox="0 0 128 128" xmlns="http://www.w3.org/2000/svg">
  <path d="M32,24.66c0,0,2.43-7.3,8.16-11.88s58.85,15.04,58.85,15.04s9.28,3.31,14.77,12.08 c3.69,5.9,5.75,14.62,1.84,25.15C106.3,90.13,82.12,87.23,75.82,85.8c-2.96-0.67-10.17-2.58-10.17-2.58s-16.47,13.6-36.29,3.17 c-15.09-7.94-13.22-19.81-13.22-19.81S5.98,56.42,10.38,42.27C15.68,25.23,32,24.66,32,24.66z" fill="#5B9821"/>
  <path d="M66.37,55.01c13.75-2.29,18.04-8.16,21.77-13.6c4.11-6,3.01-11.03,5.87-11.17s5.14,5.02,2,14.03 c-4.44,12.74-13.57,14.61-13.75,18.04c-0.14,2.72,9.72,2.91,18.62-1.43c12.89-6.3,12.89-21.05,12.89-21.05s-2.29-4.73-6.73-8.02 S99.3,26.8,99.3,26.8s-5.3-19.9-29.35-23.2S36.01,17.07,36.01,17.07s0.86,5.44,5.01,11.74c3.31,5.03,6.73,4.87,6.44,7.73 c-0.19,1.86-6.16,2.43-12.46-0.29c-5.74-2.48-7.16-5.87-8.73-5.87s-14.59,7.25-9.16,22.62c4.3,12.17,18.51,14.45,21.05,14.89 c7.45,1.29,11.74-3.58,6.44-7.45s-11.17-6.16-9.88-10.02c1.39-4.18,6.35,0.18,12.31,2.76C52.92,55.73,60.05,56.07,66.37,55.01z" fill="#8BC02B"/>
  <path d="M39.03,70.97c0,0,3.3-0.19,4.66-0.58c1.36-0.39,3.2-1.55,3.2-1.55S59.64,82.18,60.96,83.3 c1.29,1.09,2.81-15.53,2.81-15.53s2.91,0.45,5.63,0.02c3.58-0.57,6.02-1.71,6.02-1.71S73.68,76.31,73,80.19 c-0.43,2.49-0.58,9.41-0.58,9.41l-9.32,7.76l-7.09-4.76c0,0-0.02-1.87-1.07-3.14C51.68,85.52,39.03,70.97,39.03,70.97z" fill="#6D4B41"/>
  <path d="M71.54,93.78l7.09-8.54c0,0,2.52,0.19,4.37,0.19c1.84,0,5.05-0.39,5.05-0.39s-5.82,7.86-8.93,11.74 c-3.11,3.88-7.18,8.74-7.18,8.74l-3.88-11.26L71.54,93.78z" fill="#6D4B41"/>
  <path d="M66.5,86.98c-2.9,0.26-10.48,5.63-10.48,5.63s0.39,9.12,0.1,14.27s-2.32,13.56-0.45,15.69 c1.62,1.84,15.24,2.19,17.27,0.05c2.04-2.14,0.06-10.98,0.06-16.71c0-5.73-0.58-16.31-0.58-16.31S69.8,86.69,66.5,86.98z" fill="#865B50"/>
</svg>

<svg viewBox="0 0 128 128" xmlns="http://www.w3.org/2000/svg">
  <defs/>
  <path d="M32,24.66 C32,24.66 34.43,17.36 40.16,12.78 C45.89,8.2 99.01,27.82 99.01,27.82 C99.01,27.82 108.29,31.13 113.78,39.9 C117.47,45.8 119.53,54.52 115.62,65.05 C106.3,90.13 82.12,87.23 75.82,85.8 C72.86,85.13 65.65,83.22 65.65,83.22 C65.65,83.22 49.18,96.82 29.36,86.39 C14.27,78.45 16.14,66.58 16.14,66.58 C16.14,66.58 5.98,56.42 10.38,42.27 C15.68,25.23 32,24.66 32,24.66 Z" fill="#5B9821"/>
  <path d="M66.37,55.01 C80.12,52.72 84.41,46.85 88.14,41.41 C92.25,35.41 91.15,30.38 94.01,30.24 C96.87,30.1 99.15,35.26 96.01,44.27 C91.57,57.01 82.44,58.88 82.26,62.31 C82.12,65.03 91.98,65.22 100.88,60.88 C113.77,54.58 113.77,39.83 113.77,39.83 C113.77,39.83 111.48,35.1 107.04,31.81 C102.6,28.52 99.3,26.8 99.3,26.8 C99.3,26.8 94,6.9 69.95,3.6 C45.9,0.3 36.01,17.07 36.01,17.07 C36.01,17.07 36.87,22.51 41.02,28.81 C44.33,33.84 47.75,33.68 47.46,36.54 C47.27,38.4 41.3,38.97 35,36.25 C29.26,33.77 27.84,30.38 26.27,30.38 C24.7,30.38 11.68,37.63 17.11,53 C21.41,65.17 35.62,67.45 38.16,67.89 C45.61,69.18 49.9,64.31 44.6,60.44 C39.3,56.57 33.43,54.28 34.72,50.42 C36.11,46.24 41.07,50.6 47.03,53.18 C52.92,55.73 60.05,56.07 66.37,55.01 Z" fill="#8BC02B"/>
  <path d="M39.03,70.97 C39.03,70.97 42.33,70.78 43.69,70.39 C45.05,70 46.89,68.84 46.89,68.84 C46.89,68.84 59.64,82.18 60.96,83.3 C62.25,84.39 63.77,67.77 63.77,67.77 C63.77,67.77 66.68,68.22 69.4,67.79 C72.98,67.22 75.42,66.08 75.42,66.08 C75.42,66.08 73.68,76.31 73,80.19 C72.57,82.68 72.42,89.6 72.42,89.6 L63.1,97.36 L56.01,92.6 C56.01,92.6 55.99,90.73 54.94,89.46 C51.68,85.52 39.03,70.97 39.03,70.97 Z" fill="#6D4B41"/>
  <path d="M71.54,93.78 L78.63,85.24 C78.63,85.24 81.15,85.43 83,85.43 C84.84,85.43 88.05,85.04 88.05,85.04 C88.05,85.04 82.23,92.9 79.12,96.78 C76.01,100.66 71.94,105.52 71.94,105.52 L68.06,94.26 L71.54,93.78 Z" fill="#6D4B41"/>
  <path d="M66.5,86.98 C63.6,87.24 56.02,92.61 56.02,92.61 C56.02,92.61 56.41,101.73 56.12,106.88 C55.83,112.03 53.8,120.44 55.67,122.57 C57.29,124.41 70.91,124.76 72.94,122.62 C74.98,120.48 73,111.64 73,105.91 C73,100.18 72.42,89.6 72.42,89.6 C72.42,89.6 69.8,86.69 66.5,86.98 Z" fill="#865B50"/>
</svg>
